X:1
T:Proud Margaret
M:4/4
L:1/8
K:F
 D2| A3/2 B/2 A3/2 G/2 F2 E2| D4 z2 c2| d2d-e A2 c2| d6| c2| de fd c2 d2|\
 F6G-G| Ad AG F2 E2| D6||
